packages/kaspersky-hexa-ui-icons/src/iconsSVGs/24/IOS2.svg

<svg width="24" height="24" viewBox="0 0 24 24" fill="none" xmlns="http://www.w3.org/2000/svg">
<path fill-rule="evenodd" clip-rule="evenodd" d="M21.6613 12.8815C21.4348 12.4702 21.1517 12.1244 20.8109 11.844C20.4702 11.5625 20.0996 11.3247 19.7012 11.1273C19.3017 10.9298 18.9321 10.7367 18.5914 10.5491C18.2506 10.3615 17.9665 10.1607 17.74 9.94036C17.5156 9.72 17.4013 9.44618 17.4013 9.11673C17.4013 8.76436 17.5238 8.484 17.7699 8.27455C18.0149 8.06727 18.368 7.96145 18.8292 7.96145C19.3192 7.96145 19.7753 8.02473 20.1984 8.15127C20.6205 8.27782 20.9386 8.41855 21.1496 8.57236L21.7684 6.67636C21.4328 6.456 21.0045 6.28909 20.4856 6.17455C19.9668 6.05782 19.415 6 18.8292 6C18.3196 6 17.8584 6.06655 17.4445 6.19855C17.0317 6.33055 16.6745 6.53455 16.3708 6.80945C16.0681 7.08327 15.8365 7.42582 15.6728 7.83927C15.5091 8.25055 15.4268 8.736 15.4268 9.29673C15.4268 9.94582 15.541 10.4793 15.7655 10.8971C15.9919 11.3138 16.2761 11.6629 16.6168 11.9433C16.9576 12.2225 17.3272 12.4593 17.7266 12.6524C18.125 12.8444 18.4956 13.0298 18.8364 13.212C19.1772 13.3942 19.4603 13.5927 19.6868 13.8131C19.9122 14.0335 20.0255 14.3182 20.0255 14.6705C20.0255 15.132 19.869 15.4756 19.557 15.7015C19.2441 15.9262 18.7952 16.0396 18.2084 16.0396C17.9593 16.0396 17.7163 16.0167 17.4806 15.972C17.2459 15.9284 17.0225 15.8738 16.8114 15.8084C16.5993 15.7418 16.4099 15.672 16.2411 15.5935C16.0733 15.5171 15.9364 15.4462 15.8313 15.3785L15.1972 17.3084C15.4566 17.4622 15.8602 17.6149 16.4068 17.7687C16.9555 17.9236 17.5897 18 18.3103 18C18.857 18 19.3604 17.928 19.8165 17.7851C20.2725 17.6422 20.6617 17.4229 20.9839 17.1273C21.3051 16.8295 21.5542 16.4585 21.7323 16.0135C21.9104 15.5695 22 15.0393 22 14.4229C22 13.8087 21.8868 13.2949 21.6613 12.8815ZM12.097 12C12.097 11.4404 12.0548 10.9178 11.9745 10.4345C11.8922 9.95018 11.7645 9.528 11.5916 9.16582C11.4196 8.80255 11.1952 8.51891 10.9162 8.316C10.6383 8.11418 10.2985 8.01164 9.89497 8.01164C9.19492 8.01164 8.65341 8.33345 8.27045 8.976C7.88542 9.61855 7.69291 10.6276 7.69291 12C7.69291 12.5825 7.73717 13.1193 7.82262 13.6069C7.9091 14.0967 8.04087 14.5167 8.21794 14.868C8.39604 15.2204 8.62459 15.4953 8.90152 15.6927C9.18051 15.8913 9.51097 15.9895 9.89497 15.9895C10.595 15.9895 11.1365 15.6764 11.5215 15.0502C11.9045 14.4229 12.097 13.4062 12.097 12ZM13.9079 9.54327C14.0808 10.2807 14.1673 11.0989 14.1673 12C14.1673 13.9233 13.7957 15.4047 13.0524 16.4433C12.3101 17.4807 11.257 18 9.89497 18C9.16609 18 8.53296 17.8571 7.99557 17.5724C7.45921 17.2865 7.01551 16.8796 6.66548 16.3516C6.31443 15.8236 6.055 15.192 5.88205 14.4556C5.70909 13.7204 5.62262 12.9022 5.62262 12C5.62262 10.0778 5.9922 8.59636 6.73034 7.55782C7.46848 6.52036 8.5237 6 9.89497 6C10.6135 6 11.2426 6.14291 11.7799 6.42873C12.3173 6.71455 12.7621 7.12145 13.1183 7.64945C13.4724 8.17636 13.736 8.80909 13.9079 9.54327ZM3.00478 6C2.69079 6 2.44474 6.10364 2.26664 6.31309C2.08854 6.52145 2 6.77455 2 7.06909C2 7.36473 2.08854 7.61127 2.26664 7.80982C2.44474 8.00727 2.69079 8.10655 3.00478 8.10655C3.31877 8.10655 3.57202 8.00727 3.76762 7.80982C3.96117 7.61127 4.05897 7.36473 4.05897 7.06909C4.05897 6.77455 3.96117 6.52145 3.76762 6.31309C3.57202 6.10364 3.31877 6 3.00478 6ZM2.02724 18H4.08621V9.16582H2.02724V18Z" fill="black"/>
</svg>

<svg xmlns="http://www.w3.org/2000/svg" width="24" height="24" fill="none" viewBox="0 0 24 24"><path fill="#000" fill-rule="evenodd" d="M21.6613 12.8815c-.2265-.4113-.5096-.7571-.8504-1.0375-.3407-.2815-.7113-.5193-1.1097-.7167a28 28 0 0 1-1.1098-.5782c-.3408-.1876-.6249-.3884-.8514-.6087-.2244-.2204-.3387-.4942-.3387-.8237 0-.3523.1225-.6327.3686-.8422.245-.2072.5981-.313 1.0593-.313.49 0 .9461.0632 1.3692.1898.4221.1265.7402.2672.9512.421l.6188-1.896c-.3356-.2203-.7639-.3872-1.2828-.5018C19.9668 6.0579 19.415 6 18.8292 6c-.5096 0-.9708.0666-1.3847.1986-.4128.132-.77.336-1.0737.6109-.3027.2738-.5343.6163-.698 1.0298-.1637.4113-.246.8967-.246 1.4574 0 .6491.1142 1.1826.3387 1.6004.2264.4167.5106.7658.8513 1.0462a5.57 5.57 0 0 0 1.1098.7091c.3984.192.769.3774 1.1098.5596s.6239.3807.8504.6011c.2254.2204.3387.5051.3387.8574 0 .4615-.1565.8051-.4685 1.031-.3129.2247-.7618.3381-1.3486.3381a3.9 3.9 0 0 1-.7278-.0676 5.9 5.9 0 0 1-.6692-.1636c-.2121-.0666-.4015-.1364-.5703-.2149-.1678-.0764-.3047-.1473-.4098-.215l-.6341 1.9299c.2594.1538.663.3065 1.2096.4603.5487.1549 1.1829.2313 1.9035.2313.5467 0 1.0501-.072 1.5062-.2149q.684-.2144 1.1674-.6578c.3212-.2978.5703-.6688.7484-1.1138.1781-.444.2677-.9742.2677-1.5906 0-.6142-.1132-1.128-.3387-1.5414M12.097 12c0-.5596-.0422-1.0822-.1225-1.5655-.0823-.4843-.21-.9065-.3829-1.2687-.172-.3633-.3964-.6469-.6754-.8498-.2779-.2018-.6177-.3044-1.0212-.3044-.7 0-1.2416.3218-1.6245.9644-.385.6426-.5776 1.6516-.5776 3.024 0 .5825.0443 1.1193.1297 1.6069.0865.4898.2183.9098.3953 1.2611.1781.3524.4067.6273.6836.8247.279.1986.6095.2968.9935.2968.7 0 1.2415-.3131 1.6265-.9393.383-.6273.5755-1.644.5755-3.0502m1.8109-2.4567c.1729.7374.2594 1.5556.2594 2.4567 0 1.9233-.3716 3.4047-1.1149 4.4433C12.3101 17.4807 11.257 18 9.895 18c-.729 0-1.362-.1429-1.8994-.4276q-.8048-.4288-1.3301-1.2208c-.351-.528-.6105-1.1596-.7835-1.896-.173-.7352-.2594-1.5534-.2594-2.4556 0-1.9222.3696-3.4036 1.1077-4.4422C7.4685 6.5204 8.5237 6 9.895 6c.7185 0 1.3476.143 1.8849.4287s.9822.6928 1.3384 1.2207c.3541.527.6177 1.1597.7896 1.8939M3.0048 6c-.314 0-.56.1036-.7382.313-.178.2085-.2666.4615-.2666.756 0 .2957.0885.5423.2666.7408.1781.1975.4242.2968.7382.2968s.5672-.0993.7628-.2968c.1936-.1985.2914-.445.2914-.7407 0-.2946-.0978-.5476-.2914-.756C3.572 6.1036 3.3188 6 3.0048 6m-.9776 12h2.059V9.1658h-2.059z" clip-rule="evenodd"/></svg>
